X:14
T:Chercher avec toi, Marie - V282
C:J.C. Gianadda
M:4/4
L:1/8
%%wordsspace 1cm
K:Am
E|"Lam"E3E AG FE|"Rem"F4 zF GA|"Sol"G4 zD GF|"Do"E6 zC|
w:R.~Cher-|cher a-vec toi dans nos|vies les pas de|Dieu, Vier-ge Ma-|rie. Par|
"Lam"C3C FE DC|"Rem"D4 zD EF|"Mi"E4-E B, CB,|"Lam"A,6z2|]
w:toi ac-cueil-lir au-jour-|d'hui le don de|Dieu,*Vier-ge Ma-|rie.|
"Lam"c2 cB cB cB|"Rem"c4 zA Bc|"Sol"B4-BA GF|"Do"G6z2|
w:1.~Puis-que tu chan-tes a-vec|nous Ma-gni-fi-|cat,*Vier-ge Ma-|rie,|
"Lam"A2 AA AE AE|"Rem"F4- FA BA|"Mi"^G4-GG AG|"Lam"A6 zE||
w:per-mets la P-que sur nos|pas,*nous fe-rons|tout*ce qu'il di-|ra. Cher-|
W:1. Puisque tu chantes avec nous
W:Magnificat, Vierge Marie,
W:Permets la Pque sur nos pas,
W:Nous ferons tout ce qu'il dira.
W:
W:2. Puisque tu souffres avec nous
W:Gethsmani, Vierge Marie,
W:Soutiens nos croix de l'aujourd'hui,
W:Entre tes mains voici ma vie.
W:
W:3. Puisque tu demeures avec nous
W:Pour l'Anglus, Vierge Marie,
W:Guide nos pas dans l'inconnu
W:Car tu es celle qui as cru.
